assets/icons/tools/github.svg

<svg xmlns="http://www.w3.org/2000/svg" style="isolation:isolate" width="128" height="128"><defs><clipPath id="a"><path d="M0 0h128v128H0z"/></clipPath></defs><g clip-path="url(#a)" fill="#FFF"><path d="M64 5.103c-33.347 0-60.388 27.035-60.388 60.388 0 26.682 17.303 49.317 41.297 57.303 3.017.56 4.125-1.31 4.125-2.905 0-1.44-.056-6.197-.082-11.243-16.8 3.653-20.345-7.125-20.345-7.125-2.747-6.98-6.705-8.836-6.705-8.836-5.48-3.748.413-3.67.413-3.67 6.063.425 9.257 6.223 9.257 6.223 5.386 9.23 14.127 6.562 17.573 5.02.542-3.903 2.107-6.568 3.834-8.076-13.413-1.525-27.514-6.704-27.514-29.843 0-6.593 2.36-11.98 6.223-16.21-.628-1.52-2.695-7.662.584-15.98 0 0 5.07-1.623 16.61 6.19C53.7 35 58.867 34.327 64 34.304c5.13.023 10.3.694 15.127 2.033 11.526-7.813 16.59-6.19 16.59-6.19 3.287 8.317 1.22 14.46.593 15.98 3.872 4.23 6.215 9.617 6.215 16.21 0 23.194-14.127 28.3-27.574 29.796 2.167 1.874 4.097 5.55 4.097 11.183 0 8.08-.07 14.583-.07 16.572 0 1.607 1.088 3.49 4.148 2.897 23.98-7.994 41.263-30.622 41.263-57.294C124.388 32.14 97.35 5.104 64 5.104v-.001z" fill-rule="evenodd"/><path d="M26.484 91.806c-.133.3-.605.39-1.035.185-.44-.196-.685-.605-.543-.906.13-.31.603-.395 1.04-.188.44.197.69.61.537.91l.001-.001zm2.446 2.729c-.287.267-.85.143-1.232-.28-.396-.42-.47-.983-.177-1.254.298-.266.844-.14 1.24.28.394.426.472.984.17 1.255l-.001-.001zm2.382 3.477c-.37.258-.976.017-1.35-.52-.37-.538-.37-1.183.01-1.44.373-.258.97-.025 1.35.507.368.545.368 1.19-.01 1.452v.001zm3.261 3.361c-.33.365-1.036.267-1.552-.23-.527-.487-.674-1.18-.343-1.544.336-.366 1.045-.264 1.564.23.527.486.686 1.18.333 1.543l-.002.001zm4.5 1.951c-.147.473-.825.688-1.51.486-.683-.207-1.13-.76-.99-1.238.14-.477.823-.7 1.512-.485.683.206 1.13.756.988 1.237zm4.943.361c.017.498-.563.91-1.28.92-.723.017-1.308-.387-1.315-.877 0-.503.568-.91 1.29-.924.717-.013 1.306.387 1.306.88l-.001.001zm4.598-.782c.086.485-.413.984-1.126 1.117-.7.13-1.35-.172-1.44-.653-.086-.498.422-.997 1.122-1.126.714-.123 1.354.17 1.444.663v-.001z"/></g></svg>

<?xml version="1.0" standalone="no"?><!-- Generator: Gravit.io --><svg xmlns="http://www.w3.org/2000/svg" xmlns:xlink="http://www.w3.org/1999/xlink" style="isolation:isolate" viewBox="0 0 128 128" width="128" height="128"><defs><clipPath id="_clipPath_ZFGW3XYN15c6Z5Wty5JoCDGYI0UW1zdZ"><rect width="128" height="128"/></clipPath></defs><g clip-path="url(#_clipPath_ZFGW3XYN15c6Z5Wty5JoCDGYI0UW1zdZ)"><path d=" M 64 5.103 C 30.653 5.103 3.612 32.138 3.612 65.491 C 3.612 92.173 20.915 114.808 44.909 122.794 C 47.926 123.354 49.034 121.484 49.034 119.889 C 49.034 118.449 48.978 113.692 48.952 108.646 C 32.152 112.299 28.607 101.521 28.607 101.521 C 25.86 94.541 21.902 92.685 21.902 92.685 C 16.422 88.937 22.315 89.015 22.315 89.015 C 28.378 89.44 31.572 95.238 31.572 95.238 C 36.958 104.468 45.699 101.8 49.145 100.258 C 49.687 96.355 51.252 93.69 52.979 92.182 C 39.566 90.657 25.465 85.478 25.465 62.339 C 25.465 55.746 27.825 50.359 31.688 46.129 C 31.06 44.609 28.993 38.467 32.272 30.149 C 32.272 30.149 37.342 28.526 48.882 36.339 C 53.7 35 58.867 34.327 64 34.304 C 69.13 34.327 74.3 34.998 79.127 36.337 C 90.653 28.524 95.717 30.147 95.717 30.147 C 99.004 38.464 96.937 44.607 96.31 46.127 C 100.182 50.357 102.525 55.744 102.525 62.337 C 102.525 85.531 88.398 90.637 74.951 92.133 C 77.118 94.007 79.048 97.683 79.048 103.316 C 79.048 111.396 78.978 117.899 78.978 119.888 C 78.978 121.495 80.066 123.378 83.126 122.785 C 107.106 114.791 124.389 92.163 124.389 65.491 C 124.388 32.14 97.35 5.104 64 5.104 L 64 5.103 Z " fill-rule="evenodd" fill="rgb(255,255,255)"/><path d=" M 26.484 91.806 C 26.351 92.106 25.879 92.196 25.449 91.991 C 25.009 91.795 24.764 91.386 24.906 91.085 C 25.036 90.775 25.509 90.69 25.946 90.897 C 26.386 91.094 26.636 91.507 26.483 91.807 L 26.484 91.806 Z  M 28.93 94.535 C 28.643 94.802 28.08 94.678 27.698 94.255 C 27.302 93.835 27.228 93.272 27.521 93.001 C 27.819 92.735 28.365 92.861 28.761 93.281 C 29.155 93.707 29.233 94.265 28.931 94.536 L 28.93 94.535 Z  M 31.312 98.012 C 30.942 98.27 30.336 98.029 29.962 97.492 C 29.592 96.954 29.592 96.309 29.972 96.052 C 30.345 95.794 30.942 96.027 31.322 96.559 C 31.69 97.104 31.69 97.749 31.312 98.011 L 31.312 98.012 Z  M 34.573 101.373 C 34.243 101.738 33.537 101.64 33.021 101.143 C 32.494 100.656 32.347 99.963 32.678 99.599 C 33.014 99.233 33.723 99.335 34.242 99.829 C 34.769 100.315 34.928 101.009 34.575 101.372 L 34.573 101.373 Z  M 39.073 103.324 C 38.926 103.797 38.248 104.012 37.563 103.81 C 36.88 103.603 36.433 103.05 36.573 102.572 C 36.713 102.095 37.396 101.872 38.085 102.087 C 38.768 102.293 39.215 102.843 39.073 103.324 Z  M 44.016 103.685 C 44.033 104.183 43.453 104.595 42.736 104.605 C 42.013 104.622 41.428 104.218 41.421 103.728 C 41.421 103.225 41.989 102.818 42.711 102.804 C 43.428 102.791 44.017 103.191 44.017 103.684 L 44.016 103.685 Z  M 48.614 102.903 C 48.7 103.388 48.201 103.887 47.488 104.02 C 46.788 104.15 46.138 103.848 46.048 103.367 C 45.962 102.869 46.47 102.37 47.17 102.241 C 47.884 102.118 48.524 102.411 48.614 102.904 L 48.614 102.903 Z " fill="rgb(255,255,255)"/></g></svg>
